X: 14869
T: Garry Porch Of Avernish
R: strathspey
M: 4/4
K: Bminor
f<BB>A B<dB>A|G<BB>A B<eB>A|F<BB>A B<dB>A|B<EE<D E<FA>A|
f<BB>A B<dB>A|G<BB>A B<fe>d|f<BB>A B<dd>f|e>dB>A B<dd>A||
D<AA>F A<dA>F|G<AA>G A<eA>G|D<AA>F A<dA>F|G<AA<G E2E>F|
D<AA>F A<dA>F|G<AA>G A<eA>G|D<AA>F A<dA>F|A<ec>A ^A<fc>B||

